X:1
T:Title
%%score [ ( 1 2 ) ( 3 4 ) ]
L:1/8
Q:1/4=120
M:4/4
K:G
V:1 treble nm=" " snm=" "
V:2 treble 
V:3 bass nm="Midi_74"
V:4 bass 
V:1
"^From the Brockes-Passion" B2 A2 G2"^Choral der Christlichen Kirche" A2 | Bc d>e c4 | %2
w: Ach, wie hun- gert|mein * Ge * mü-|
 B4"^G. F. Handel" B2 d2 |[M:4/4] c2 B2 GA B2 | A4 G4 | B2 A2 G2 A2 | Bc d>e c4 | B4 B2 d2 | %8
w: te, Men- schen-|freund, nach dei * ner|Gü- te!|Ach, wie pfleg' ich|oft * mit * Trä-|nen mich nach|
 c2 B2 GA B2 | A4 G4 | d2 d2 e2 f2 | g2 f2 e4 | d4 d2 d2 | e2 f2 g2 f2 | e4 d4 | A2 B2 c2 c2 | %16
w: die- ser Kost * zu|seh- nen!|Ach, wie pfle- get|mich zu dür-|sten nach dem|Trank des Le- bens-|für- sten!|wün- sche stets, dass|
 B3 A (A2 ^G2) | A4 B2 d2 | c2 B2 GA B2 | A4 G8 |] %20
w: mein Ge- bei *|ne sich durch|Gott mit Gott * ver-|ei- ne.|
V:2
 G3 F EG GF | G2 G2 (G2 F2) | G4 G2 A2 |[M:4/4] G2 G2 EF G2 | (G2 F2) G4 | G3 F EG GF | %6
 G2 G2 (G2 F2) | G4 G2 A2 | G2 G2 EF G2 | (G2 F2) G4 | G2 B2 A2 A2 | GE A2 (B2 AG) | F4 G2 B2 | %13
 A2 A2 GE A2 | (B2 AG) F4 | F2 ^G2 A2 A2 | =F2 D2 E4 | E4 G2 A2 | G2 G2 EF G2 | (G2 F2) G8 |] %20
V:3
 D2 D2 B,D ED | D2 D2 (E2 D2) | D4 D2 D2 |[M:4/4] E2 D2 E2 D2 | (E2 DC) B,4 | D2 D2 B,D ED | %6
 D2 D2 (E2 D2) | D4 D2 D2 | E2 D2 E2 D2 | (E2 DC) B,4 | B,2 B,2 ^C2 D2 | D^C D2 (D2 C2) | %12
 D4 B,2 B,2 | ^C2 D2 DC D2 | (D2 ^C2) D4 | %15
"^This edition produced by Andrew Sims 2015" A,2 E2 E2 E2 | D3 D (C2 B,2) | ^C4 D2 D2 | %18
 E2 D2 E2 D2 | (E2 DC) B,8 |] %20
V:4
 G,2 D,2 E,B,, C,D, | G,A, B,2 (A,2 D,2) | G,4 G,2 F,2 |[M:4/4] E,F, G,2 C,2 B,,2 | (C,2 D,2) G,4 | %5
 G,2 D,2 E,B,, C,D, | G,A, B,2 (A,2 D,2) | G,4 G,2 F,2 | E,F, G,2 C,2 B,,2 | (C,2 D,2) G,4 | %10
 G,2 G,2 G,2 F,2 | E,2 D,2 (G,2 A,2) | D,4 G,2 G,2 | G,2 F,2 E,2 D,2 | (G,2 A,2) D,4 | %15
 D,2 D,2 C,2 A,,2 | D,2 =F,2 E,4 | A,,4 G,2 F,2 | E,F, G,2 C,2 B,,2 | (C,2 D,2) G,,8 |] %20

